roles/openhab/templates/webui/icons/openhab_logo.svg

<?xml version="1.0" encoding="UTF-8" standalone="no"?>
<svg
   xmlns="http://www.w3.org/2000/svg"
   width="16"
   height="16"
   viewBox="0 0 4.2333334 4.2333335">
  <path
     d="M 0.21902222,3.0220864 1.87543,1.3644617 2.1166562,1.1232463 l 0.2412262,0.2412154 1.2227349,1.222724 -0.00179,0.00617 -0.02412,0.071037 -0.027372,0.069336 -0.030775,0.067699 -0.033876,0.066051 -0.030797,0.053453 -1.315232,-1.3152332 C 1.5427607,2.1800238 0.96888762,2.7543384 0.39501457,3.3286315 0.32874798,3.2310298 0.26719764,3.1304991 0.21902134,3.0220864 Z"/>
  <path
     d="m 2.1166778,-2.4030792e-5 c 1.1658794,0 2.1166564,0.950819850792 2.1166564,2.116710130792 0,1.165815 -0.950777,2.1166779 -2.1166564,2.1166779 -0.6368233,0 -1.20936103,-0.2839538 -1.59791575,-0.7314529 l 0.0747949,-0.075075 0.0542925,-0.054314 0.0544003,-0.054465 0.0544217,-0.054422 0.002218,-0.0022 C 1.0853342,3.6479694 1.5730414,3.8942563 2.1166778,3.8942563 c 0.9790752,0 1.7775916,-0.7984733 1.7775916,-1.77757 0,-0.9791506 -0.7985164,-1.77764539 -1.7775916,-1.77764539 -0.9791183,0 -1.77763482,0.79849479 -1.77763482,1.77764539 0,0.131855 0.0146661,0.2603395 0.0421572,0.3841829 L 0.26325743,2.6190596 0.10583922,2.776607 C 0.0372789,2.5687296 -1.338812e-7,2.3469936 -1.338812e-7,2.1166863 -1.338812e-7,0.95079604 0.9507766,-2.3810262e-5 2.1166778,-2.4030792e-5 Z"/>
</svg>

<svg width="16" height="16" viewBox="0 0 4.2333334 4.2333335" xmlns="http://www.w3.org/2000/svg">
 <path d="m0.21902 3.0221 1.6564-1.6576 0.24123-0.24122l0.24123 0.24122 1.2227 1.2227-0.00179 0.00617-0.02412 0.071037-0.027372 0.069336-0.030775 0.067699-0.033876 0.066051-0.030797 0.053453-1.3152-1.3152c-0.57389 0.57433-1.1478 1.1486-1.7216 1.7229-0.066267-0.097602-0.12782-0.19813-0.17599-0.30655z"/>
 <path d="m2.1167-2.4031e-5c1.1659 0 2.1167 0.95082 2.1167 2.1167 0 1.1658-0.95078 2.1167-2.1167 2.1167-0.63682 0-1.2094-0.28395-1.5979-0.73145l0.074795-0.075075 0.054292-0.054314 0.0544-0.054465 0.054422-0.054422 0.002218-0.0022c0.32644 0.38653 0.81415 0.63282 1.3578 0.63282 0.97908 0 1.7776-0.79847 1.7776-1.7776 0-0.97915-0.79852-1.7776-1.7776-1.7776-0.97912 0-1.7776 0.79849-1.7776 1.7776 0 0.13186 0.014666 0.26034 0.042157 0.38418l-0.11794 0.11819-0.15742 0.15755c-0.06856-0.20788-0.10584-0.42961-0.10584-0.65992 0-1.1659 0.95078-2.1167 2.1167-2.1167z"/>
</svg>
